qtOgitor/res/icons/pmpoints.svg

<svg width="60" xmlns="http://www.w3.org/2000/svg" height="60" viewBox="0 0 48 48">
<g fill="#0e4062">
<path opacity=".71" d="m22.77,0h4.82c-.19,.54-.56,1.62-.75,2.16-2.36,.18-4.94,.14-6.83,1.81-1.5,1.33-3.45,1.66-5.39,1.76 2.74-.87 5.13-2.55 7.85-3.47 .08-.56 .22-1.69 .3-2.26z"/>
<path opacity=".71" d="m38.81,6.34c3.45-.57 5.71,2.91 9.19,2.27v11.75c-1.93,3.57-2.68,7.58-2.7,11.62 .29-3.03-.18-6.03-.81-8.98 .28-3.63 1.69-7.33 .68-10.98-1.47-2.51-4.44-3.56-6.36-5.68z"/>
</g>
<path opacity=".33" fill="#0e1c2d" d="m27.59,0h1.47c.28,2.78 3.2,2.29 5.19,2.98 1.82,.57 3.17,1.99 4.41,3.36-1.26-.01-2.52-.05-3.77-.13-2.32-1.99-5.2-3.07-8.05-4.05 .19-.54 .56-1.62 .75-2.16z"/>
<path opacity=".66" fill="#455f3a" d="m20.01,3.97c1.89-1.67 4.47-1.63 6.83-1.81 2.85,.98 5.73,2.06 8.05,4.05-1.91,.16-3.75-.3-5.38-1.28-2.36-1.77-5.57-1.97-7.88,.02-3.08,1.84-6.7,2.9-10.28,2.82 .82-1.13 1.91-1.81 3.27-2.04 1.94-.1 3.89-.43 5.39-1.76z"/>
<path opacity=".79" fill="#a2a813" d="m21.63,4.95c2.31-1.99 5.52-1.79 7.88-.02-1.25,2.76-4.12,4.14-6.97,2.82-.23-.7-.68-2.1-.91-2.8z"/>
<path opacity=".84" fill="#738e36" d="m11.35,7.77c3.58,.08 7.2-.98 10.28-2.82 .23,.7 .68,2.1 .91,2.8 2.85,1.32 5.72-.06 6.97-2.82 1.63,.98 3.47,1.44 5.38,1.28 1.25,.08 2.51,.12 3.77,.13h.15c1.92,2.12 4.89,3.17 6.36,5.68 1.01,3.65-.4,7.35-.68,10.98 .63,2.95 1.1,5.95 .81,8.98-.51,.42-1.53,1.28-2.05,1.71-.05-2.54 .84-5.44-1.01-7.57-3.7,1.06-4.11,5.09-2.8,8.17 .66,.15 1.98,.44 2.63,.59-4.46,2.98-8.72,6.3-13.01,9.56-.39-.23-1.17-.69-1.56-.93-1.3-3.06-.83-6.41-.26-9.57 .67-2.35-.62-4.59-.61-6.92-.05-2.51 .02-5.03-.04-7.54-2.05-.86-4.24-1.25-6.44-1.46l-.75-.79c-1.51-2.33-4.22-2.71-6.76-2.97-1.65-1.24-5.26-1.93-4.77-4.44-1.46,.12-2.99-.07-4.39,.41l.12-.6c2.48-1.03 5.45-.45 7.75-1.86m22.8-.41c-1.22,1.01-1.92,2.4-2.04,3.98 2.93,.19 6.1,.88 8.87-.41-1.85-1.87-4.35-2.82-6.83-3.57m-24.08,2.79c1.78,2.68 8.53,3.87 8.88-.18-2.43-2.31-6.09-.5-8.88,.18m12.13-.74c-1.14,.34-.98,1.81 .12,2.01 2.31,.27 4.63,.08 6.93-.13 .12-.47 .36-1.42 .48-1.89-2.51-.1-5.03-.27-7.53,.01m.02,3.89c-1.19,5.14 7.92,5.59 7.6,.42-1.97-1.9-5.28-1.39-7.6-.42m10.05,3.16c1.44,.36 2.88,.74 4.33,1.08 .81-1.41 1.56-2.85 2.22-4.34-1.6-.18-3.2-.58-4.82-.38-1.44,.67-1.7,2.23-1.73,3.64m7.03-.5c-.15,2.34 .08,4.68 .25,7.01 1.68-.74 2.8-2.24 3.99-3.57 .01-2.11 .07-4.21 .1-6.32-1.59,.69-3.27,1.48-4.34,2.88m-7.69,2.57c-1.39,.95-2.26,2.45-3.28,3.75 .01,2.19-.02,4.37-.06,6.55 2.91,.32 4.95-2.06 6.91-3.82 .25-2.13 .37-4.28 .32-6.44-1.3-.06-2.6-.21-3.89-.04m5.67,4.78c-.74,1.24-1.27,2.68-2.35,3.68-.6,.74-2.05,1.25-1.34,2.42 1.2,.32 2.45,.26 3.69,.27 .88-1.73 2.07-3.36 2.46-5.29-.82-.37-1.63-.73-2.46-1.08m-7.49,10.56c-1.07,1.9-1.16,4.14-1.39,6.26 .65,.33 1.94,1 2.59,1.34 1.46-1.4 2.92-2.78 4.32-4.23 .12-2.01 .19-4.02 .22-6.03-2.23-.02-4.06,1.35-5.74,2.66z"/>
<path opacity=".78" fill="#bab803" d="m34.15,7.36c2.48,.75 4.98,1.7 6.83,3.57-2.77,1.29-5.94,.6-8.87,.41 .12-1.58 .82-2.97 2.04-3.98z"/>
<path opacity=".73" fill="#bb0" d="m10.07,10.15c2.79-.68 6.45-2.49 8.88-.18-.35,4.05-7.1,2.86-8.88,.18z"/>
<path opacity=".89" fill="#43735c" d="m22.2,9.41c2.5-.28 5.02-.11 7.53-.01-.12,.47-.36,1.42-.48,1.89-2.3,.21-4.62,.4-6.93,.13-1.1-.2-1.26-1.67-.12-2.01z"/>
<path opacity=".84" fill="#062547" d="m3.48,10.23c1.4-.48 2.93-.29 4.39-.41-.49,2.51 3.12,3.2 4.77,4.44 2.54,.26 5.25,.64 6.76,2.97-1.75,2.25-2.19,5.11-1.6,7.87 .9,2.38 3.36,3.54 5.35,4.85 1.37-1.34 1.52-3.19 1.35-4.99 .28-3.06-2.7-4.79-4.35-6.94 2.2,.21 4.39,.6 6.44,1.46 .06,2.51-.01,5.03 .04,7.54-.01,2.33 1.28,4.57 .61,6.92-.57,3.16-1.04,6.51 .26,9.57 .39,.24 1.17,.7 1.56,.93-2.55,1.08-4.93-.51-6.98-1.85 5.51-1.94 2.17-11.9-3.6-10.21-.08,1.48-.26,2.96-.11,4.44 .69,1.64 2.18,2.95 2.2,4.84-2.03-1.05-4.16-1.93-6.4-2.39-1.37-.38-2.78-.66-4.12-1.13-.72-1.49-2.21-2.24-3.58-3.01-.06-2.38 .19-4.82-.47-7.15-1.01-3.87-.34-7.93-.91-11.86-.45-.17-1.36-.5-1.81-.67 .02-1.74 .09-3.48 .2-5.22m3.8,4.96c-.65,3.63 1.48,10.18 6.25,8.28 2.15-1.41 .4-3.87-.2-5.63-.6-2.5-3.83-4.04-6.05-2.65m1.23,12.36c-.43,2.64-.12,5.42 1.41,7.67 1.4,.74 3.09,.39 4.62,.5 1.99-3.64-1.53-10.03-6.03-8.17z"/>
<path opacity=".73" fill="#bbba00" d="m22.22,13.3c2.32-.97 5.63-1.48 7.6,.42 .32,5.17-8.79,4.72-7.6-.42z"/>
<path opacity=".88" fill="#4f7854" d="m32.27,16.46c.03-1.41 .29-2.97 1.73-3.64 1.62-.2 3.22,.2 4.82,.38-.66,1.49-1.41,2.93-2.22,4.34-1.45-.34-2.89-.72-4.33-1.08z"/>
<path opacity=".74" fill="#b7b000" d="m39.3,15.96c1.07-1.4 2.75-2.19 4.34-2.88-.03,2.11-.09,4.21-.1,6.32-1.19,1.33-2.31,2.83-3.99,3.57-.17-2.33-.4-4.67-.25-7.01z"/>
<path opacity=".75" fill="#0d0d14" d="m7.28,15.19c2.22-1.39 5.45,.15 6.05,2.65 .6,1.76 2.35,4.22 .2,5.63-4.77,1.9-6.9-4.65-6.25-8.28z"/>
<path opacity=".73" fill="#0d080b" d="m19.4,17.23l.75,.79c1.65,2.15 4.63,3.88 4.35,6.94 .17,1.8 .02,3.65-1.35,4.99-1.99-1.31-4.45-2.47-5.35-4.85-.59-2.76-.15-5.62 1.6-7.87z"/>
<path opacity=".75" fill="#a8ab06" d="m31.61,18.53c1.29-.17 2.59-.02 3.89,.04 .05,2.16-.07,4.31-.32,6.44-1.96,1.76-4,4.14-6.91,3.82 .04-2.18 .07-4.36 .06-6.55 1.02-1.3 1.89-2.8 3.28-3.75z"/>
<path opacity=".54" fill="#00244f" d="m45.3,31.98c.02-4.04 .77-8.05 2.7-11.62v12.67c-3.81,1.98-6.94,4.97-10.58,7.21-3.26,2.06-6.89,4.05-8.51,7.76h-4.18c-.97-4.05-5.89-5.22-9.32-6.59-.31-.53-.93-1.6-1.24-2.14 2.24,.46 4.37,1.34 6.4,2.39 .38,.23 1.13,.7 1.51,.93 2.05,1.34 4.43,2.93 6.98,1.85 4.29-3.26 8.55-6.58 13.01-9.56 .3-.3 .89-.89 1.18-1.19 .52-.43 1.54-1.29 2.05-1.71z"/>
<path opacity=".88" fill="#4a7553" d="m37.28,23.31c.83,.35 1.64,.71 2.46,1.08-.39,1.93-1.58,3.56-2.46,5.29-1.24-.01-2.49,.05-3.69-.27-.71-1.17 .74-1.68 1.34-2.42 1.08-1 1.61-2.44 2.35-3.68z"/>
<path opacity=".76" fill="#0f0d12" d="m8.51,27.55c4.5-1.86 8.02,4.53 6.03,8.17-1.53-.11-3.22,.24-4.62-.5-1.53-2.25-1.84-5.03-1.41-7.67z"/>
<path opacity=".75" fill="#b5b101" d="m39.44,34.29c-1.31-3.08-.9-7.11 2.8-8.17 1.85,2.13 .96,5.03 1.01,7.57-.29,.3-.88,.89-1.18,1.19-.65-.15-1.97-.44-2.63-.59z"/>
<path opacity=".75" fill="#aeac06" d="m29.79,33.87c1.68-1.31 3.51-2.68 5.74-2.66-.03,2.01-.1,4.02-.22,6.03-1.4,1.45-2.86,2.83-4.32,4.23-.65-.34-1.94-1.01-2.59-1.34 .23-2.12 .32-4.36 1.39-6.26z"/>
<path opacity=".74" fill="#0e0b0e" d="m18.48,32.38c5.77-1.69 9.11,8.27 3.6,10.21-.38-.23-1.13-.7-1.51-.93-.02-1.89-1.51-3.2-2.2-4.84-.15-1.48 .03-2.96 .11-4.44z"/>
</svg>

<?xml version="1.0" encoding="UTF-8" standalone="no"?>
<!-- Created with Inkscape (http://www.inkscape.org/) -->
<svg
   xmlns:svg="http://www.w3.org/2000/svg"
   xmlns="http://www.w3.org/2000/svg"
   version="1.0"
   width="48pt"
   height="48pt"
   viewBox="0 0 48 48"
   id="svg2">
  <defs
     id="defs70" />
  <g
     id="#0e4062b5">
    <path
       d="M 22.77,0 L 27.59,0 C 27.4,0.54 27.03,1.62 26.84,2.16 C 24.48,2.34 21.9,2.3 20.01,3.97 C 18.51,5.3 16.56,5.63 14.62,5.73 C 17.36,4.86 19.75,3.18 22.47,2.26 C 22.55,1.7 22.69,0.57 22.77,0 z"
       id="path5"
       style="opacity:0.70999995;fill:#0e4062" />
    <path
       d="M 38.81,6.34 C 42.26,5.77 44.52,9.25 48,8.61 L 48,20.36 C 46.07,23.93 45.32,27.94 45.3,31.98 C 45.59,28.95 45.12,25.95 44.49,23 C 44.77,19.37 46.18,15.67 45.17,12.02 C 43.7,9.51 40.73,8.46 38.81,6.34 z"
       id="path7"
       style="opacity:0.70999995;fill:#0e4062" />
  </g>
  <g
     id="#0e1c2d54">
    <path
       d="M 27.59,0 L 29.06,0 C 29.34,2.78 32.26,2.29 34.25,2.98 C 36.07,3.55 37.42,4.97 38.66,6.34 C 37.4,6.33 36.14,6.29 34.89,6.21 C 32.57,4.22 29.69,3.14 26.84,2.16 C 27.03,1.62 27.4,0.54 27.59,0 z"
       id="path10"
       style="opacity:0.33000004;fill:#0e1c2d" />
  </g>
  <g
     id="#455f3aa9">
    <path
       d="M 20.01,3.97 C 21.9,2.3 24.48,2.34 26.84,2.16 C 29.69,3.14 32.57,4.22 34.89,6.21 C 32.98,6.37 31.14,5.91 29.51,4.93 C 27.15,3.16 23.94,2.96 21.63,4.95 C 18.55,6.79 14.93,7.85 11.35,7.77 C 12.17,6.64 13.26,5.96 14.62,5.73 C 16.56,5.63 18.51,5.3 20.01,3.97 z"
       id="path13"
       style="opacity:0.66000001;fill:#455f3a" />
  </g>
  <g
     id="#a2a813c9">
    <path
       d="M 21.63,4.95 C 23.94,2.96 27.15,3.16 29.51,4.93 C 28.26,7.69 25.39,9.07 22.54,7.75 C 22.31,7.05 21.86,5.65 21.63,4.95 z"
       id="path16"
       style="opacity:0.79000005;fill:#a2a813" />
  </g>
  <g
     id="#738e36d5">
    <path
       d="M 11.35,7.77 C 14.93,7.85 18.55,6.79 21.63,4.95 C 21.86,5.65 22.31,7.05 22.54,7.75 C 25.39,9.07 28.26,7.69 29.51,4.93 C 31.14,5.91 32.98,6.37 34.89,6.21 C 36.14,6.29 37.4,6.33 38.66,6.34 L 38.81,6.34 C 40.73,8.46 43.7,9.51 45.17,12.02 C 46.18,15.67 44.77,19.37 44.49,23 C 45.12,25.95 45.59,28.95 45.3,31.98 C 44.79,32.4 43.77,33.26 43.25,33.69 C 43.2,31.15 44.09,28.25 42.24,26.12 C 38.54,27.18 38.13,31.21 39.44,34.29 C 40.1,34.44 41.42,34.73 42.07,34.88 C 37.61,37.86 33.35,41.18 29.06,44.44 C 28.67,44.21 27.89,43.75 27.5,43.51 C 26.2,40.45 26.67,37.1 27.24,33.94 C 27.91,31.59 26.62,29.35 26.63,27.02 C 26.58,24.51 26.65,21.99 26.59,19.48 C 24.54,18.62 22.35,18.23 20.15,18.02 L 19.4,17.23 C 17.89,14.9 15.18,14.52 12.64,14.26 C 10.99,13.02 7.38,12.33 7.87,9.82 C 6.41,9.94 4.88,9.75 3.48,10.23 L 3.6,9.63 C 6.08,8.6 9.05,9.18 11.35,7.77 M 34.15,7.36 C 32.93,8.37 32.23,9.76 32.11,11.34 C 35.04,11.53 38.21,12.22 40.98,10.93 C 39.13,9.06 36.63,8.11 34.15,7.36 M 10.07,10.15 C 11.85,12.83 18.6,14.02 18.95,9.97 C 16.52,7.66 12.86,9.47 10.07,10.15 M 22.2,9.41 C 21.06,9.75 21.22,11.22 22.32,11.42 C 24.63,11.69 26.95,11.5 29.25,11.29 C 29.37,10.82 29.61,9.87 29.73,9.4 C 27.22,9.3 24.7,9.13 22.2,9.41 M 22.22,13.3 C 21.03,18.44 30.14,18.89 29.82,13.72 C 27.85,11.82 24.54,12.33 22.22,13.3 M 32.27,16.46 C 33.71,16.82 35.15,17.2 36.6,17.54 C 37.41,16.13 38.16,14.69 38.82,13.2 C 37.22,13.02 35.62,12.62 34,12.82 C 32.56,13.49 32.3,15.05 32.27,16.46 M 39.3,15.96 C 39.15,18.3 39.38,20.64 39.55,22.97 C 41.23,22.23 42.35,20.73 43.54,19.4 C 43.55,17.29 43.61,15.19 43.64,13.08 C 42.05,13.77 40.37,14.56 39.3,15.96 M 31.61,18.53 C 30.22,19.48 29.35,20.98 28.33,22.28 C 28.34,24.47 28.31,26.65 28.27,28.83 C 31.18,29.15 33.22,26.77 35.18,25.01 C 35.43,22.88 35.55,20.73 35.5,18.57 C 34.2,18.51 32.9,18.36 31.61,18.53 M 37.28,23.31 C 36.54,24.55 36.01,25.99 34.93,26.99 C 34.33,27.73 32.88,28.24 33.59,29.41 C 34.79,29.73 36.04,29.67 37.28,29.68 C 38.16,27.95 39.35,26.32 39.74,24.39 C 38.92,24.02 38.11,23.66 37.28,23.31 M 29.79,33.87 C 28.72,35.77 28.63,38.01 28.4,40.13 C 29.05,40.46 30.34,41.13 30.99,41.47 C 32.45,40.07 33.91,38.69 35.31,37.24 C 35.43,35.23 35.5,33.22 35.53,31.21 C 33.3,31.19 31.47,32.56 29.79,33.87 z"
       id="path19"
       style="opacity:0.83999999;fill:#738e36" />
  </g>
  <g
     id="#bab803c6">
    <path
       d="M 34.15,7.36 C 36.63,8.11 39.13,9.06 40.98,10.93 C 38.21,12.22 35.04,11.53 32.11,11.34 C 32.23,9.76 32.93,8.37 34.15,7.36 z"
       id="path22"
       style="opacity:0.77999998;fill:#bab803" />
  </g>
  <g
     id="#bbbb00bb">
    <path
       d="M 10.07,10.15 C 12.86,9.47 16.52,7.66 18.95,9.97 C 18.6,14.02 11.85,12.83 10.07,10.15 z"
       id="path25"
       style="opacity:0.73000004;fill:#bbbb00" />
  </g>
  <g
     id="#43735ce4">
    <path
       d="M 22.2,9.41 C 24.7,9.13 27.22,9.3 29.73,9.4 C 29.61,9.87 29.37,10.82 29.25,11.29 C 26.95,11.5 24.63,11.69 22.32,11.42 C 21.22,11.22 21.06,9.75 22.2,9.41 z"
       id="path28"
       style="opacity:0.88999999;fill:#43735c" />
  </g>
  <g
     id="#062547d7">
    <path
       d="M 3.48,10.23 C 4.88,9.75 6.41,9.94 7.87,9.82 C 7.38,12.33 10.99,13.02 12.64,14.26 C 15.18,14.52 17.89,14.9 19.4,17.23 C 17.65,19.48 17.21,22.34 17.8,25.1 C 18.7,27.48 21.16,28.64 23.15,29.95 C 24.52,28.61 24.67,26.76 24.5,24.96 C 24.78,21.9 21.8,20.17 20.15,18.02 C 22.35,18.23 24.54,18.62 26.59,19.48 C 26.65,21.99 26.58,24.51 26.63,27.02 C 26.62,29.35 27.91,31.59 27.24,33.94 C 26.67,37.1 26.2,40.45 27.5,43.51 C 27.89,43.75 28.67,44.21 29.06,44.44 C 26.51,45.52 24.13,43.93 22.08,42.59 C 27.59,40.65 24.25,30.69 18.48,32.38 C 18.4,33.86 18.22,35.34 18.37,36.82 C 19.06,38.46 20.55,39.77 20.57,41.66 C 18.54,40.61 16.41,39.73 14.17,39.27 C 12.8,38.89 11.39,38.61 10.05,38.14 C 9.33,36.65 7.84,35.9 6.47,35.13 C 6.41,32.75 6.66,30.31 6,27.98 C 4.99,24.11 5.66,20.05 5.09,16.12 C 4.64,15.95 3.73,15.62 3.28,15.45 C 3.3,13.71 3.37,11.97 3.48,10.23 M 7.28,15.19 C 6.63,18.82 8.76,25.37 13.53,23.47 C 15.68,22.06 13.93,19.6 13.33,17.84 C 12.73,15.34 9.5,13.8 7.28,15.19 M 8.51,27.55 C 8.08,30.19 8.39,32.97 9.92,35.22 C 11.32,35.96 13.01,35.61 14.54,35.72 C 16.53,32.08 13.01,25.69 8.51,27.55 z"
       id="path31"
       style="opacity:0.83999999;fill:#062547" />
  </g>
  <g
     id="#bbba00bb">
    <path
       d="M 22.22,13.3 C 24.54,12.33 27.85,11.82 29.82,13.72 C 30.14,18.89 21.03,18.44 22.22,13.3 z"
       id="path34"
       style="opacity:0.73000004;fill:#bbba00" />
  </g>
  <g
     id="#4f7854e1">
    <path
       d="M 32.27,16.46 C 32.3,15.05 32.56,13.49 34,12.82 C 35.62,12.62 37.22,13.02 38.82,13.2 C 38.16,14.69 37.41,16.13 36.6,17.54 C 35.15,17.2 33.71,16.82 32.27,16.46 z"
       id="path37"
       style="opacity:0.87999998;fill:#4f7854" />
  </g>
  <g
     id="#b7b000bc">
    <path
       d="M 39.3,15.96 C 40.37,14.56 42.05,13.77 43.64,13.08 C 43.61,15.19 43.55,17.29 43.54,19.4 C 42.35,20.73 41.23,22.23 39.55,22.97 C 39.38,20.64 39.15,18.3 39.3,15.96 z"
       id="path40"
       style="opacity:0.73999999;fill:#b7b000" />
  </g>
  <g
     id="#0d0d14bf">
    <path
       d="M 7.28,15.19 C 9.5,13.8 12.73,15.34 13.33,17.84 C 13.93,19.6 15.68,22.06 13.53,23.47 C 8.76,25.37 6.63,18.82 7.28,15.19 z"
       id="path43"
       style="opacity:0.75;fill:#0d0d14" />
  </g>
  <g
     id="#0d080bbb">
    <path
       d="M 19.4,17.23 L 20.15,18.02 C 21.8,20.17 24.78,21.9 24.5,24.96 C 24.67,26.76 24.52,28.61 23.15,29.95 C 21.16,28.64 18.7,27.48 17.8,25.1 C 17.21,22.34 17.65,19.48 19.4,17.23 z"
       id="path46"
       style="opacity:0.73000004;fill:#0d080b" />
  </g>
  <g
     id="#a8ab06c0">
    <path
       d="M 31.61,18.53 C 32.9,18.36 34.2,18.51 35.5,18.57 C 35.55,20.73 35.43,22.88 35.18,25.01 C 33.22,26.77 31.18,29.15 28.27,28.83 C 28.31,26.65 28.34,24.47 28.33,22.28 C 29.35,20.98 30.22,19.48 31.61,18.53 z"
       id="path49"
       style="opacity:0.75;fill:#a8ab06" />
  </g>
  <g
     id="#00244f8a">
    <path
       d="M 45.3,31.98 C 45.32,27.94 46.07,23.93 48,20.36 L 48,33.03 C 44.19,35.01 41.06,38 37.42,40.24 C 34.16,42.3 30.53,44.29 28.91,48 L 24.73,48 C 23.76,43.95 18.84,42.78 15.41,41.41 C 15.1,40.88 14.48,39.81 14.17,39.27 C 16.41,39.73 18.54,40.61 20.57,41.66 C 20.95,41.89 21.7,42.36 22.08,42.59 C 24.13,43.93 26.51,45.52 29.06,44.44 C 33.35,41.18 37.61,37.86 42.07,34.88 C 42.37,34.58 42.96,33.99 43.25,33.69 C 43.77,33.26 44.79,32.4 45.3,31.98 z"
       id="path52"
       style="opacity:0.54000005;fill:#00244f" />
  </g>
  <g
     id="#4a7553e0">
    <path
       d="M 37.28,23.31 C 38.11,23.66 38.92,24.02 39.74,24.39 C 39.35,26.32 38.16,27.95 37.28,29.68 C 36.04,29.67 34.79,29.73 33.59,29.41 C 32.88,28.24 34.33,27.73 34.93,26.99 C 36.01,25.99 36.54,24.55 37.28,23.31 z"
       id="path55"
       style="opacity:0.87999998;fill:#4a7553" />
  </g>
  <g
     id="#0f0d12c1">
    <path
       d="M 8.51,27.55 C 13.01,25.69 16.53,32.08 14.54,35.72 C 13.01,35.61 11.32,35.96 9.92,35.22 C 8.39,32.97 8.08,30.19 8.51,27.55 z"
       id="path58"
       style="opacity:0.76000001;fill:#0f0d12" />
  </g>
  <g
     id="#b5b101bf">
    <path
       d="M 39.44,34.29 C 38.13,31.21 38.54,27.18 42.24,26.12 C 44.09,28.25 43.2,31.15 43.25,33.69 C 42.96,33.99 42.37,34.58 42.07,34.88 C 41.42,34.73 40.1,34.44 39.44,34.29 z"
       id="path61"
       style="opacity:0.75;fill:#b5b101" />
  </g>
  <g
     id="#aeac06c0">
    <path
       d="M 29.79,33.87 C 31.47,32.56 33.3,31.19 35.53,31.21 C 35.5,33.22 35.43,35.23 35.31,37.24 C 33.91,38.69 32.45,40.07 30.99,41.47 C 30.34,41.13 29.05,40.46 28.4,40.13 C 28.63,38.01 28.72,35.77 29.79,33.87 z"
       id="path64"
       style="opacity:0.75;fill:#aeac06" />
  </g>
  <g
     id="#0e0b0ebc">
    <path
       d="M 18.48,32.38 C 24.25,30.69 27.59,40.65 22.08,42.59 C 21.7,42.36 20.95,41.89 20.57,41.66 C 20.55,39.77 19.06,38.46 18.37,36.82 C 18.22,35.34 18.4,33.86 18.48,32.38 z"
       id="path67"
       style="opacity:0.73999999;fill:#0e0b0e" />
  </g>
</svg>
